src/pages/elements/images/hyphen-en-dash-wrong-mobile.svg

<svg xmlns="http://www.w3.org/2000/svg" viewBox="0 0 288 216"><g fill="none" fill-rule="evenodd"><path fill="#FFF" d="M0 0h288v216H0z"/><path d="M85.96 72h-1.92V59.616h1.92v2.016h.096c.6-1.392 1.656-2.304 3.504-2.304 2.544 0 4.152 1.728 4.152 4.728V72h-1.92v-7.608c0-2.208-.96-3.336-2.808-3.336-1.536 0-3.024.768-3.024 2.352V72zm16.392.288c-3.312 0-5.592-2.544-5.592-6.48 0-3.936 2.28-6.48 5.592-6.48s5.592 2.544 5.592 6.48c0 3.936-2.28 6.48-5.592 6.48zm0-1.704c2.064 0 3.528-1.272 3.528-3.888V64.92c0-2.616-1.464-3.888-3.528-3.888s-3.528 1.272-3.528 3.888v1.776c0 2.616 1.464 3.888 3.528 3.888zM113.032 72h-1.92V59.616h1.92v2.016h.096c.6-1.392 1.656-2.304 3.504-2.304 2.544 0 4.152 1.728 4.152 4.728V72h-1.92v-7.608c0-2.208-.96-3.336-2.808-3.336-1.536 0-3.024.768-3.024 2.352V72zm25.824 4.8V59.616h1.92v2.016h.096c.648-1.56 1.92-2.304 3.624-2.304 3.096 0 5.04 2.52 5.04 6.48 0 3.96-1.944 6.48-5.04 6.48-1.704 0-2.88-.768-3.624-2.304h-.096V76.8h-1.92zm5.112-6.24c2.16 0 3.504-1.488 3.504-3.696v-2.112c0-2.208-1.344-3.696-3.504-3.696-1.752 0-3.192 1.008-3.192 2.376v4.608c0 1.608 1.44 2.52 3.192 2.52zM154.696 72h-1.92V59.616h1.92v2.28h.12c.432-1.176 1.56-2.28 3.576-2.28h.744v1.92h-1.128c-2.064 0-3.312.888-3.312 2.064V72zm11.448.288c-3.312 0-5.592-2.544-5.592-6.48 0-3.936 2.28-6.48 5.592-6.48s5.592 2.544 5.592 6.48c0 3.936-2.28 6.48-5.592 6.48zm0-1.704c2.064 0 3.528-1.272 3.528-3.888V64.92c0-2.616-1.464-3.888-3.528-3.888s-3.528 1.272-3.528 3.888v1.776c0 2.616 1.464 3.888 3.528 3.888zM175.432 72V61.296h-2.016v-1.68h2.016V57.12c0-1.704.888-2.88 2.712-2.88h1.872v1.68h-2.664v3.696h6.936V72h-1.92V61.296h-5.016V72h-1.92zm7.896-15.288c-.816 0-1.176-.432-1.176-1.08v-.312c0-.648.36-1.08 1.176-1.08s1.176.432 1.176 1.08v.312c0 .648-.36 1.08-1.176 1.08zM193.504 72h-2.4c-1.32 0-2.04-.84-2.04-2.04v-8.664h-2.04v-1.68h1.152c.816 0 1.08-.288 1.08-1.128v-2.304h1.728v3.432h2.712v1.68h-2.712v9.024h2.52V72zM94.792 91.392c0 4.968-3.288 8.856-5.976 10.608h-2.592c3.576-2.616 5.568-4.8 6.48-8.688l-.12-.048c-.792 1.368-1.992 2.4-4.032 2.4-2.88 0-4.944-1.992-4.944-5.16 0-3.288 2.208-5.544 5.568-5.544 3.48 0 5.616 2.448 5.616 6.432zM89.2 93.96c2.208 0 3.504-1.272 3.504-3.528v-.192c0-2.256-1.296-3.528-3.504-3.528s-3.504 1.272-3.504 3.528v.192c0 2.256 1.296 3.528 3.504 3.528zm10.704-1.536c-1.008 0-1.464-.576-1.464-1.392v-.312c0-.816.456-1.392 1.464-1.392s1.464.576 1.464 1.392v.312c0 .816-.456 1.392-1.464 1.392zm0 9.864c-1.008 0-1.464-.576-1.464-1.392v-.312c0-.816.456-1.392 1.464-1.392s1.464.576 1.464 1.392v.312c0 .816-.456 1.392-1.464 1.392zm10.704 0c-4.008 0-5.76-3.192-5.76-8.664 0-5.472 1.752-8.664 5.76-8.664s5.76 3.192 5.76 8.664c0 5.472-1.752 8.664-5.76 8.664zm0-1.752c2.616 0 3.648-2.304 3.648-5.544v-2.736c0-3.24-1.032-5.544-3.648-5.544s-3.648 2.304-3.648 5.544v2.736c0 3.24 1.032 5.544 3.648 5.544zm14.4 1.752c-4.008 0-5.76-3.192-5.76-8.664 0-5.472 1.752-8.664 5.76-8.664s5.76 3.192 5.76 8.664c0 5.472-1.752 8.664-5.76 8.664zm0-1.752c2.616 0 3.648-2.304 3.648-5.544v-2.736c0-3.24-1.032-5.544-3.648-5.544s-3.648 2.304-3.648 5.544v2.736c0 3.24 1.032 5.544 3.648 5.544zm28.728-15.288v1.776h-7.344l-.48 6.384h.168c.792-1.128 1.68-1.848 3.432-1.848 2.88 0 4.992 1.944 4.992 5.184 0 3.264-2.112 5.544-5.64 5.544-2.784 0-4.224-1.416-5.232-2.856l1.512-1.152c.864 1.32 1.704 2.208 3.72 2.208 2.28 0 3.504-1.272 3.504-3.48v-.24c0-2.208-1.224-3.48-3.504-3.48-1.536 0-2.304.648-3 1.416l-1.704-.24.6-9.216h8.976zm5.952 7.176c-1.008 0-1.464-.576-1.464-1.392v-.312c0-.816.456-1.392 1.464-1.392s1.464.576 1.464 1.392v.312c0 .816-.456 1.392-1.464 1.392zm0 9.864c-1.008 0-1.464-.576-1.464-1.392v-.312c0-.816.456-1.392 1.464-1.392s1.464.576 1.464 1.392v.312c0 .816-.456 1.392-1.464 1.392zm10.704 0c-4.008 0-5.76-3.192-5.76-8.664 0-5.472 1.752-8.664 5.76-8.664s5.76 3.192 5.76 8.664c0 5.472-1.752 8.664-5.76 8.664zm0-1.752c2.616 0 3.648-2.304 3.648-5.544v-2.736c0-3.24-1.032-5.544-3.648-5.544s-3.648 2.304-3.648 5.544v2.736c0 3.24 1.032 5.544 3.648 5.544zm14.4 1.752c-4.008 0-5.76-3.192-5.76-8.664 0-5.472 1.752-8.664 5.76-8.664s5.76 3.192 5.76 8.664c0 5.472-1.752 8.664-5.76 8.664zm0-1.752c2.616 0 3.648-2.304 3.648-5.544v-2.736c0-3.24-1.032-5.544-3.648-5.544s-3.648 2.304-3.648 5.544v2.736c0 3.24 1.032 5.544 3.648 5.544zM84.232 132v-16.752h2.688l4.8 9.024h.12l4.824-9.024h2.592V132h-1.968v-14.112h-.12l-1.416 2.808-4.008 7.296-4.008-7.296-1.416-2.808h-.12V132h-1.968zm29.376 0h-1.08c-1.416 0-1.992-.864-2.136-2.016h-.12c-.528 1.512-1.848 2.304-3.576 2.304-2.616 0-4.152-1.44-4.152-3.744 0-2.328 1.68-3.624 5.28-3.624h2.448v-1.224c0-1.752-.96-2.712-2.928-2.712-1.488 0-2.472.72-3.144 1.848l-1.152-1.08c.672-1.32 2.16-2.424 4.392-2.424 2.976 0 4.752 1.56 4.752 4.176v6.816h1.416V132zm-6.6-1.344c1.896 0 3.264-.984 3.264-2.256v-2.04h-2.544c-2.184 0-3.168.672-3.168 1.872v.504c0 1.224.96 1.92 2.448 1.92zm13.848-2.616l3-8.424h1.896l-5.544 15.264c-.552 1.488-1.056 1.92-2.88 1.92h-.984v-1.68h1.944l.936-2.64-4.632-12.864h1.92l2.976 8.424.576 2.016h.12l.672-2.016zm23.76 2.184V132h-10.992v-2.064l5.472-5.04c1.56-1.44 2.76-3.12 2.76-4.728v-.288c0-1.848-1.032-3.12-3.096-3.12s-3.024 1.248-3.48 2.832l-1.8-.696c.648-1.968 2.136-3.936 5.376-3.936 3.264 0 5.136 2.016 5.136 4.872 0 2.592-1.536 4.416-3.672 6.336l-4.512 4.056h8.808zm6.048-7.872h1.824c2.256 0 3.408-1.176 3.408-2.784v-.168c0-1.752-1.224-2.64-3-2.64-1.728 0-2.76.816-3.456 2.088l-1.488-1.152c.84-1.344 2.304-2.736 4.992-2.736 2.832 0 5.088 1.512 5.088 4.224 0 2.16-1.44 3.456-3.216 3.912v.096c1.8.36 3.528 1.704 3.528 4.224 0 2.88-2.28 4.872-5.688 4.872-2.904 0-4.392-1.416-5.424-2.856l1.512-1.152c.864 1.32 1.848 2.208 3.888 2.208 2.352 0 3.6-1.128 3.6-3.096v-.192c0-1.968-1.248-3.096-3.6-3.096h-1.968v-1.752zm32.328 7.872V132H172v-2.064l5.472-5.04c1.56-1.44 2.76-3.12 2.76-4.728v-.288c0-1.848-1.032-3.12-3.096-3.12s-3.024 1.248-3.48 2.832l-1.8-.696c.648-1.968 2.136-3.936 5.376-3.936 3.264 0 5.136 2.016 5.136 4.872 0 2.592-1.536 4.416-3.672 6.336l-4.512 4.056h8.808zm8.808 2.064c-3.816 0-5.808-2.088-5.808-4.848 0-2.28 1.368-3.6 3.384-4.152v-.192c-1.752-.6-2.88-2.016-2.88-3.936 0-2.544 1.968-4.2 5.304-4.2 3.336 0 5.304 1.656 5.304 4.2 0 1.92-1.128 3.336-2.88 3.936v.192c2.016.552 3.384 1.872 3.384 4.152 0 2.76-1.992 4.848-5.808 4.848zm0-1.752c2.328 0 3.672-1.104 3.672-3v-.504c0-1.896-1.344-3-3.672-3-2.328 0-3.672 1.104-3.672 3v.504c0 1.896 1.344 3 3.672 3zm0-8.184c2.088 0 3.216-.936 3.216-2.64v-.36c0-1.704-1.128-2.64-3.216-2.64s-3.216.936-3.216 2.64v.36c0 1.704 1.128 2.64 3.216 2.64zM95.128 162H84.112v-1.776h4.68v-13.488h-.168l-4.224 3.936-1.176-1.272 4.44-4.152h3.144v14.976h4.32V162zm14.064-10.608c0 4.968-3.288 8.856-5.976 10.608h-2.592c3.576-2.616 5.568-4.8 6.48-8.688l-.12-.048c-.792 1.368-1.992 2.4-4.032 2.4-2.88 0-4.944-1.992-4.944-5.16 0-3.288 2.208-5.544 5.568-5.544 3.48 0 5.616 2.448 5.616 6.432zm-5.592 2.568c2.208 0 3.504-1.272 3.504-3.528v-.192c0-2.256-1.296-3.528-3.504-3.528s-3.504 1.272-3.504 3.528v.192c0 2.256 1.296 3.528 3.504 3.528zm14.4 8.328c-3.816 0-5.808-2.088-5.808-4.848 0-2.28 1.368-3.6 3.384-4.152v-.192c-1.752-.6-2.88-2.016-2.88-3.936 0-2.544 1.968-4.2 5.304-4.2 3.336 0 5.304 1.656 5.304 4.2 0 1.92-1.128 3.336-2.88 3.936v.192c2.016.552 3.384 1.872 3.384 4.152 0 2.76-1.992 4.848-5.808 4.848zm0-1.752c2.328 0 3.672-1.104 3.672-3v-.504c0-1.896-1.344-3-3.672-3-2.328 0-3.672 1.104-3.672 3v.504c0 1.896 1.344 3 3.672 3zm0-8.184c2.088 0 3.216-.936 3.216-2.64v-.36c0-1.704-1.128-2.64-3.216-2.64s-3.216.936-3.216 2.64v.36c0 1.704 1.128 2.64 3.216 2.64zm14.4 9.936c-4.008 0-5.76-3.192-5.76-8.664 0-5.472 1.752-8.664 5.76-8.664s5.76 3.192 5.76 8.664c0 5.472-1.752 8.664-5.76 8.664zm0-1.752c2.616 0 3.648-2.304 3.648-5.544v-2.736c0-3.24-1.032-5.544-3.648-5.544s-3.648 2.304-3.648 5.544v2.736c0 3.24 1.032 5.544 3.648 5.544zm29.568-.312V162h-10.992v-2.064l5.472-5.04c1.56-1.44 2.76-3.12 2.76-4.728v-.288c0-1.848-1.032-3.12-3.096-3.12s-3.024 1.248-3.48 2.832l-1.8-.696c.648-1.968 2.136-3.936 5.376-3.936 3.264 0 5.136 2.016 5.136 4.872 0 2.592-1.536 4.416-3.672 6.336l-4.512 4.056h8.808zm8.808 2.064c-4.008 0-5.76-3.192-5.76-8.664 0-5.472 1.752-8.664 5.76-8.664s5.76 3.192 5.76 8.664c0 5.472-1.752 8.664-5.76 8.664zm0-1.752c2.616 0 3.648-2.304 3.648-5.544v-2.736c0-3.24-1.032-5.544-3.648-5.544s-3.648 2.304-3.648 5.544v2.736c0 3.24 1.032 5.544 3.648 5.544zM191.104 162h-11.016v-1.776h4.68v-13.488h-.168l-4.224 3.936-1.176-1.272 4.44-4.152h3.144v14.976h4.32V162zm8.496.288c-3.48 0-5.616-2.448-5.616-6.432 0-4.968 3.288-8.856 5.976-10.608h2.592c-3.576 2.616-5.568 4.8-6.48 8.688l.12.048c.792-1.368 1.992-2.4 4.032-2.4 2.88 0 4.944 1.992 4.944 5.16 0 3.288-2.208 5.544-5.568 5.544zm-.024-1.752c2.208 0 3.504-1.272 3.504-3.528v-.192c0-2.256-1.296-3.528-3.504-3.528s-3.504 1.272-3.504 3.528v.192c0 2.256 1.296 3.528 3.504 3.528z" fill="#565656"/><path fill="#D12765" d="M135.952 65.616h-12.384v-1.824h12.384zm4.176 30.12h-6.264v-2.064h6.264zm28.416 30h-6.264v-2.064h6.264zm-21.024 30h-6.264v-2.064h6.264z"/></g></svg>

<?xml version="1.0" encoding="UTF-8"?>
<svg width="288px" height="216px" viewBox="0 0 288 216" version="1.1" xmlns="http://www.w3.org/2000/svg" xmlns:xlink="http://www.w3.org/1999/xlink">
    <!-- Generator: Sketch 51.2 (57519) - http://www.bohemiancoding.com/sketch -->
    <title>Hyphen &amp; En Dash - wrong_Mobile</title>
    <desc>Created with Sketch.</desc>
    <defs></defs>
    <g id="Page-1" stroke="none" stroke-width="1" fill="none" fill-rule="evenodd">
        <g id="Typography_Mobile_320px-Copy-2" transform="translate(-16.000000, -1979.000000)">
            <g id="Hyphen-&amp;-En-Dash---wrong_Mobile" transform="translate(16.000000, 1979.000000)">
                <rect id="Rectangle-16-Copy-164" fill="#FFFFFF" x="0" y="0" width="288" height="216"></rect>
                <path d="M85.96,72 L84.04,72 L84.04,59.616 L85.96,59.616 L85.96,61.632 L86.056,61.632 C86.656,60.24 87.712,59.328 89.56,59.328 C92.104,59.328 93.712,61.056 93.712,64.056 L93.712,72 L91.792,72 L91.792,64.392 C91.792,62.184 90.832,61.056 88.984,61.056 C87.448,61.056 85.96,61.824 85.96,63.408 L85.96,72 Z M102.352,72.288 C99.04,72.288 96.76,69.744 96.76,65.808 C96.76,61.872 99.04,59.328 102.352,59.328 C105.664,59.328 107.944,61.872 107.944,65.808 C107.944,69.744 105.664,72.288 102.352,72.288 Z M102.352,70.584 C104.416,70.584 105.88,69.312 105.88,66.696 L105.88,64.92 C105.88,62.304 104.416,61.032 102.352,61.032 C100.288,61.032 98.824,62.304 98.824,64.92 L98.824,66.696 C98.824,69.312 100.288,70.584 102.352,70.584 Z M113.032,72 L111.112,72 L111.112,59.616 L113.032,59.616 L113.032,61.632 L113.128,61.632 C113.728,60.24 114.784,59.328 116.632,59.328 C119.176,59.328 120.784,61.056 120.784,64.056 L120.784,72 L118.864,72 L118.864,64.392 C118.864,62.184 117.904,61.056 116.056,61.056 C114.52,61.056 113.032,61.824 113.032,63.408 L113.032,72 Z M138.856,76.8 L138.856,59.616 L140.776,59.616 L140.776,61.632 L140.872,61.632 C141.52,60.072 142.792,59.328 144.496,59.328 C147.592,59.328 149.536,61.848 149.536,65.808 C149.536,69.768 147.592,72.288 144.496,72.288 C142.792,72.288 141.616,71.52 140.872,69.984 L140.776,69.984 L140.776,76.8 L138.856,76.8 Z M143.968,70.56 C146.128,70.56 147.472,69.072 147.472,66.864 L147.472,64.752 C147.472,62.544 146.128,61.056 143.968,61.056 C142.216,61.056 140.776,62.064 140.776,63.432 L140.776,68.04 C140.776,69.648 142.216,70.56 143.968,70.56 Z M154.696,72 L152.776,72 L152.776,59.616 L154.696,59.616 L154.696,61.896 L154.816,61.896 C155.248,60.72 156.376,59.616 158.392,59.616 L159.136,59.616 L159.136,61.536 L158.008,61.536 C155.944,61.536 154.696,62.424 154.696,63.6 L154.696,72 Z M166.144,72.288 C162.832,72.288 160.552,69.744 160.552,65.808 C160.552,61.872 162.832,59.328 166.144,59.328 C169.456,59.328 171.736,61.872 171.736,65.808 C171.736,69.744 169.456,72.288 166.144,72.288 Z M166.144,70.584 C168.208,70.584 169.672,69.312 169.672,66.696 L169.672,64.92 C169.672,62.304 168.208,61.032 166.144,61.032 C164.08,61.032 162.616,62.304 162.616,64.92 L162.616,66.696 C162.616,69.312 164.08,70.584 166.144,70.584 Z M175.432,72 L175.432,61.296 L173.416,61.296 L173.416,59.616 L175.432,59.616 L175.432,57.12 C175.432,55.416 176.32,54.24 178.144,54.24 L180.016,54.24 L180.016,55.92 L177.352,55.92 L177.352,59.616 L184.288,59.616 L184.288,72 L182.368,72 L182.368,61.296 L177.352,61.296 L177.352,72 L175.432,72 Z M183.328,56.712 C182.512,56.712 182.152,56.28 182.152,55.632 L182.152,55.32 C182.152,54.672 182.512,54.24 183.328,54.24 C184.144,54.24 184.504,54.672 184.504,55.32 L184.504,55.632 C184.504,56.28 184.144,56.712 183.328,56.712 Z M193.504,72 L191.104,72 C189.784,72 189.064,71.16 189.064,69.96 L189.064,61.296 L187.024,61.296 L187.024,59.616 L188.176,59.616 C188.992,59.616 189.256,59.328 189.256,58.488 L189.256,56.184 L190.984,56.184 L190.984,59.616 L193.696,59.616 L193.696,61.296 L190.984,61.296 L190.984,70.32 L193.504,70.32 L193.504,72 Z M94.792,91.392 C94.792,96.36 91.504,100.248 88.816,102 L86.224,102 C89.8,99.384 91.792,97.2 92.704,93.312 L92.584,93.264 C91.792,94.632 90.592,95.664 88.552,95.664 C85.672,95.664 83.608,93.672 83.608,90.504 C83.608,87.216 85.816,84.96 89.176,84.96 C92.656,84.96 94.792,87.408 94.792,91.392 Z M89.2,93.96 C91.408,93.96 92.704,92.688 92.704,90.432 L92.704,90.24 C92.704,87.984 91.408,86.712 89.2,86.712 C86.992,86.712 85.696,87.984 85.696,90.24 L85.696,90.432 C85.696,92.688 86.992,93.96 89.2,93.96 Z M99.904,92.424 C98.896,92.424 98.44,91.848 98.44,91.032 L98.44,90.72 C98.44,89.904 98.896,89.328 99.904,89.328 C100.912,89.328 101.368,89.904 101.368,90.72 L101.368,91.032 C101.368,91.848 100.912,92.424 99.904,92.424 Z M99.904,102.288 C98.896,102.288 98.44,101.712 98.44,100.896 L98.44,100.584 C98.44,99.768 98.896,99.192 99.904,99.192 C100.912,99.192 101.368,99.768 101.368,100.584 L101.368,100.896 C101.368,101.712 100.912,102.288 99.904,102.288 Z M110.608,102.288 C106.6,102.288 104.848,99.096 104.848,93.624 C104.848,88.152 106.6,84.96 110.608,84.96 C114.616,84.96 116.368,88.152 116.368,93.624 C116.368,99.096 114.616,102.288 110.608,102.288 Z M110.608,100.536 C113.224,100.536 114.256,98.232 114.256,94.992 L114.256,92.256 C114.256,89.016 113.224,86.712 110.608,86.712 C107.992,86.712 106.96,89.016 106.96,92.256 L106.96,94.992 C106.96,98.232 107.992,100.536 110.608,100.536 Z M125.008,102.288 C121,102.288 119.248,99.096 119.248,93.624 C119.248,88.152 121,84.96 125.008,84.96 C129.016,84.96 130.768,88.152 130.768,93.624 C130.768,99.096 129.016,102.288 125.008,102.288 Z M125.008,100.536 C127.624,100.536 128.656,98.232 128.656,94.992 L128.656,92.256 C128.656,89.016 127.624,86.712 125.008,86.712 C122.392,86.712 121.36,89.016 121.36,92.256 L121.36,94.992 C121.36,98.232 122.392,100.536 125.008,100.536 Z M153.736,85.248 L153.736,87.024 L146.392,87.024 L145.912,93.408 L146.08,93.408 C146.872,92.28 147.76,91.56 149.512,91.56 C152.392,91.56 154.504,93.504 154.504,96.744 C154.504,100.008 152.392,102.288 148.864,102.288 C146.08,102.288 144.64,100.872 143.632,99.432 L145.144,98.28 C146.008,99.6 146.848,100.488 148.864,100.488 C151.144,100.488 152.368,99.216 152.368,97.008 L152.368,96.768 C152.368,94.56 151.144,93.288 148.864,93.288 C147.328,93.288 146.56,93.936 145.864,94.704 L144.16,94.464 L144.76,85.248 L153.736,85.248 Z M159.688,92.424 C158.68,92.424 158.224,91.848 158.224,91.032 L158.224,90.72 C158.224,89.904 158.68,89.328 159.688,89.328 C160.696,89.328 161.152,89.904 161.152,90.72 L161.152,91.032 C161.152,91.848 160.696,92.424 159.688,92.424 Z M159.688,102.288 C158.68,102.288 158.224,101.712 158.224,100.896 L158.224,100.584 C158.224,99.768 158.68,99.192 159.688,99.192 C160.696,99.192 161.152,99.768 161.152,100.584 L161.152,100.896 C161.152,101.712 160.696,102.288 159.688,102.288 Z M170.392,102.288 C166.384,102.288 164.632,99.096 164.632,93.624 C164.632,88.152 166.384,84.96 170.392,84.96 C174.4,84.96 176.152,88.152 176.152,93.624 C176.152,99.096 174.4,102.288 170.392,102.288 Z M170.392,100.536 C173.008,100.536 174.04,98.232 174.04,94.992 L174.04,92.256 C174.04,89.016 173.008,86.712 170.392,86.712 C167.776,86.712 166.744,89.016 166.744,92.256 L166.744,94.992 C166.744,98.232 167.776,100.536 170.392,100.536 Z M184.792,102.288 C180.784,102.288 179.032,99.096 179.032,93.624 C179.032,88.152 180.784,84.96 184.792,84.96 C188.8,84.96 190.552,88.152 190.552,93.624 C190.552,99.096 188.8,102.288 184.792,102.288 Z M184.792,100.536 C187.408,100.536 188.44,98.232 188.44,94.992 L188.44,92.256 C188.44,89.016 187.408,86.712 184.792,86.712 C182.176,86.712 181.144,89.016 181.144,92.256 L181.144,94.992 C181.144,98.232 182.176,100.536 184.792,100.536 Z M84.232,132 L84.232,115.248 L86.92,115.248 L91.72,124.272 L91.84,124.272 L96.664,115.248 L99.256,115.248 L99.256,132 L97.288,132 L97.288,117.888 L97.168,117.888 L95.752,120.696 L91.744,127.992 L87.736,120.696 L86.32,117.888 L86.2,117.888 L86.2,132 L84.232,132 Z M113.608,132 L112.528,132 C111.112,132 110.536,131.136 110.392,129.984 L110.272,129.984 C109.744,131.496 108.424,132.288 106.696,132.288 C104.08,132.288 102.544,130.848 102.544,128.544 C102.544,126.216 104.224,124.92 107.824,124.92 L110.272,124.92 L110.272,123.696 C110.272,121.944 109.312,120.984 107.344,120.984 C105.856,120.984 104.872,121.704 104.2,122.832 L103.048,121.752 C103.72,120.432 105.208,119.328 107.44,119.328 C110.416,119.328 112.192,120.888 112.192,123.504 L112.192,130.32 L113.608,130.32 L113.608,132 Z M107.008,130.656 C108.904,130.656 110.272,129.672 110.272,128.4 L110.272,126.36 L107.728,126.36 C105.544,126.36 104.56,127.032 104.56,128.232 L104.56,128.736 C104.56,129.96 105.52,130.656 107.008,130.656 Z M120.856,128.04 L123.856,119.616 L125.752,119.616 L120.208,134.88 C119.656,136.368 119.152,136.8 117.328,136.8 L116.344,136.8 L116.344,135.12 L118.288,135.12 L119.224,132.48 L114.592,119.616 L116.512,119.616 L119.488,128.04 L120.064,130.056 L120.184,130.056 L120.856,128.04 Z M144.616,130.224 L144.616,132 L133.624,132 L133.624,129.936 L139.096,124.896 C140.656,123.456 141.856,121.776 141.856,120.168 L141.856,119.88 C141.856,118.032 140.824,116.76 138.76,116.76 C136.696,116.76 135.736,118.008 135.28,119.592 L133.48,118.896 C134.128,116.928 135.616,114.96 138.856,114.96 C142.12,114.96 143.992,116.976 143.992,119.832 C143.992,122.424 142.456,124.248 140.32,126.168 L135.808,130.224 L144.616,130.224 Z M150.664,122.352 L152.488,122.352 C154.744,122.352 155.896,121.176 155.896,119.568 L155.896,119.4 C155.896,117.648 154.672,116.76 152.896,116.76 C151.168,116.76 150.136,117.576 149.44,118.848 L147.952,117.696 C148.792,116.352 150.256,114.96 152.944,114.96 C155.776,114.96 158.032,116.472 158.032,119.184 C158.032,121.344 156.592,122.64 154.816,123.096 L154.816,123.192 C156.616,123.552 158.344,124.896 158.344,127.416 C158.344,130.296 156.064,132.288 152.656,132.288 C149.752,132.288 148.264,130.872 147.232,129.432 L148.744,128.28 C149.608,129.6 150.592,130.488 152.632,130.488 C154.984,130.488 156.232,129.36 156.232,127.392 L156.232,127.2 C156.232,125.232 154.984,124.104 152.632,124.104 L150.664,124.104 L150.664,122.352 Z M182.992,130.224 L182.992,132 L172,132 L172,129.936 L177.472,124.896 C179.032,123.456 180.232,121.776 180.232,120.168 L180.232,119.88 C180.232,118.032 179.2,116.76 177.136,116.76 C175.072,116.76 174.112,118.008 173.656,119.592 L171.856,118.896 C172.504,116.928 173.992,114.96 177.232,114.96 C180.496,114.96 182.368,116.976 182.368,119.832 C182.368,122.424 180.832,124.248 178.696,126.168 L174.184,130.224 L182.992,130.224 Z M191.8,132.288 C187.984,132.288 185.992,130.2 185.992,127.44 C185.992,125.16 187.36,123.84 189.376,123.288 L189.376,123.096 C187.624,122.496 186.496,121.08 186.496,119.16 C186.496,116.616 188.464,114.96 191.8,114.96 C195.136,114.96 197.104,116.616 197.104,119.16 C197.104,121.08 195.976,122.496 194.224,123.096 L194.224,123.288 C196.24,123.84 197.608,125.16 197.608,127.44 C197.608,130.2 195.616,132.288 191.8,132.288 Z M191.8,130.536 C194.128,130.536 195.472,129.432 195.472,127.536 L195.472,127.032 C195.472,125.136 194.128,124.032 191.8,124.032 C189.472,124.032 188.128,125.136 188.128,127.032 L188.128,127.536 C188.128,129.432 189.472,130.536 191.8,130.536 Z M191.8,122.352 C193.888,122.352 195.016,121.416 195.016,119.712 L195.016,119.352 C195.016,117.648 193.888,116.712 191.8,116.712 C189.712,116.712 188.584,117.648 188.584,119.352 L188.584,119.712 C188.584,121.416 189.712,122.352 191.8,122.352 Z M95.128,162 L84.112,162 L84.112,160.224 L88.792,160.224 L88.792,146.736 L88.624,146.736 L84.4,150.672 L83.224,149.4 L87.664,145.248 L90.808,145.248 L90.808,160.224 L95.128,160.224 L95.128,162 Z M109.192,151.392 C109.192,156.36 105.904,160.248 103.216,162 L100.624,162 C104.2,159.384 106.192,157.2 107.104,153.312 L106.984,153.264 C106.192,154.632 104.992,155.664 102.952,155.664 C100.072,155.664 98.008,153.672 98.008,150.504 C98.008,147.216 100.216,144.96 103.576,144.96 C107.056,144.96 109.192,147.408 109.192,151.392 Z M103.6,153.96 C105.808,153.96 107.104,152.688 107.104,150.432 L107.104,150.24 C107.104,147.984 105.808,146.712 103.6,146.712 C101.392,146.712 100.096,147.984 100.096,150.24 L100.096,150.432 C100.096,152.688 101.392,153.96 103.6,153.96 Z M118,162.288 C114.184,162.288 112.192,160.2 112.192,157.44 C112.192,155.16 113.56,153.84 115.576,153.288 L115.576,153.096 C113.824,152.496 112.696,151.08 112.696,149.16 C112.696,146.616 114.664,144.96 118,144.96 C121.336,144.96 123.304,146.616 123.304,149.16 C123.304,151.08 122.176,152.496 120.424,153.096 L120.424,153.288 C122.44,153.84 123.808,155.16 123.808,157.44 C123.808,160.2 121.816,162.288 118,162.288 Z M118,160.536 C120.328,160.536 121.672,159.432 121.672,157.536 L121.672,157.032 C121.672,155.136 120.328,154.032 118,154.032 C115.672,154.032 114.328,155.136 114.328,157.032 L114.328,157.536 C114.328,159.432 115.672,160.536 118,160.536 Z M118,152.352 C120.088,152.352 121.216,151.416 121.216,149.712 L121.216,149.352 C121.216,147.648 120.088,146.712 118,146.712 C115.912,146.712 114.784,147.648 114.784,149.352 L114.784,149.712 C114.784,151.416 115.912,152.352 118,152.352 Z M132.4,162.288 C128.392,162.288 126.64,159.096 126.64,153.624 C126.64,148.152 128.392,144.96 132.4,144.96 C136.408,144.96 138.16,148.152 138.16,153.624 C138.16,159.096 136.408,162.288 132.4,162.288 Z M132.4,160.536 C135.016,160.536 136.048,158.232 136.048,154.992 L136.048,152.256 C136.048,149.016 135.016,146.712 132.4,146.712 C129.784,146.712 128.752,149.016 128.752,152.256 L128.752,154.992 C128.752,158.232 129.784,160.536 132.4,160.536 Z M161.968,160.224 L161.968,162 L150.976,162 L150.976,159.936 L156.448,154.896 C158.008,153.456 159.208,151.776 159.208,150.168 L159.208,149.88 C159.208,148.032 158.176,146.76 156.112,146.76 C154.048,146.76 153.088,148.008 152.632,149.592 L150.832,148.896 C151.48,146.928 152.968,144.96 156.208,144.96 C159.472,144.96 161.344,146.976 161.344,149.832 C161.344,152.424 159.808,154.248 157.672,156.168 L153.16,160.224 L161.968,160.224 Z M170.776,162.288 C166.768,162.288 165.016,159.096 165.016,153.624 C165.016,148.152 166.768,144.96 170.776,144.96 C174.784,144.96 176.536,148.152 176.536,153.624 C176.536,159.096 174.784,162.288 170.776,162.288 Z M170.776,160.536 C173.392,160.536 174.424,158.232 174.424,154.992 L174.424,152.256 C174.424,149.016 173.392,146.712 170.776,146.712 C168.16,146.712 167.128,149.016 167.128,152.256 L167.128,154.992 C167.128,158.232 168.16,160.536 170.776,160.536 Z M191.104,162 L180.088,162 L180.088,160.224 L184.768,160.224 L184.768,146.736 L184.6,146.736 L180.376,150.672 L179.2,149.4 L183.64,145.248 L186.784,145.248 L186.784,160.224 L191.104,160.224 L191.104,162 Z M199.6,162.288 C196.12,162.288 193.984,159.84 193.984,155.856 C193.984,150.888 197.272,147 199.96,145.248 L202.552,145.248 C198.976,147.864 196.984,150.048 196.072,153.936 L196.192,153.984 C196.984,152.616 198.184,151.584 200.224,151.584 C203.104,151.584 205.168,153.576 205.168,156.744 C205.168,160.032 202.96,162.288 199.6,162.288 Z M199.576,160.536 C201.784,160.536 203.08,159.264 203.08,157.008 L203.08,156.816 C203.08,154.56 201.784,153.288 199.576,153.288 C197.368,153.288 196.072,154.56 196.072,156.816 L196.072,157.008 C196.072,159.264 197.368,160.536 199.576,160.536 Z" id="non–proﬁt-9:00-5:00" fill="#565656"></path>
                <polygon id="Path" fill="#D12765" points="135.952 65.616 123.568 65.616 123.568 63.792 135.952 63.792"></polygon>
                <polygon id="Path" fill="#D12765" points="140.128 95.736 133.864 95.736 133.864 93.672 140.128 93.672"></polygon>
                <polygon id="Path" fill="#D12765" points="168.544 125.736 162.28 125.736 162.28 123.672 168.544 123.672"></polygon>
                <polygon id="Path" fill="#D12765" points="147.52 155.736 141.256 155.736 141.256 153.672 147.52 153.672"></polygon>
            </g>
        </g>
    </g>
</svg>
